X:1
T:[Audiveris detected movement]
T:[Audiveris detected movement]
T:1
%%score ( 1 2 ) { ( 3 5 6 ) | 4 }
L:1/8
Q:1/4=120
M:none
K:F
V:1 treble nm="Voice"
V:2 treble 
V:3 treble nm="Piano"
V:5 treble 
V:6 treble 
V:4 bass 
V:1
 x4 | x4 | x4 | x4 | x4 | x4 | x9/2 | x8 | x4 | x4 | x4 | x3 | z2 AA x | x2 de x | f z2 z2 ^c | %15
 d2 c z2 | d-d x e d | Mc2 B2 A z2 | (AG/ F x5/2 | D4- |!<(! D2 z!<)! z2 | x5 | z2 AA | d2 de | %24
 fe) x d[K:bass] x | F,2 F,-F, | F,2- F,G, F,2 | c x2 ((=B2 c))d x4 | (c>_B A>G) | F z!p! A x A x | %30
 A2 x A A | A2 (^G[K:bass]C,) D, x |!pp! (C,=B,,/ A,,3/2 x || D4- x2 |!<(! D2 z!<)! z2 x | %35
!>(! z7!>)! | z A- x A2 A | x2 A8 e2 | ^f2 x e x z2 || =B2 MBB x | =B2 B2 ^c x | ^c =B2 A x B | %42
 (=B2 x A2) x | (^F2 d)d x | d2 x e ^f | e2 d2 | d2 x e ^f | d-dd x d | e2 de | d2 ^cM=B x A | %50
 .^c2 A2 | ^F!p!AAA |!mp! A2 A x3 A | A3/2 x3/2 ||[K:C][K:bass] C,2 =B,, =A,, G,,/) x/ | MF,,4- x | %56
 F,,2 z (F,2 | ^E,2 x z2 | C, E,4 ||[K:F][K:treble] A4- x | A) z!pp! (d2 x | ^c2 x _B x | %62
 (AB) A (f2 | (A4 x | A)f-.ff |!>(! ._e2 x B)!>)! x | (G._e).e-.e |!>(! (.d2 x A)!>)! | %68
 F2!>)!!>(! A2 |!>(! (A^G<A x [DF]4) | (A=G/ F>)!>)!E) x/ | MD4- | D2 z z2 | z4 | x4 | x4 | x4 | %77
 x4 | x4 | x4 | z4 | z4 |!<(! z5!<)! |!>(! z2 x!>)! z!p! A x | .d-dd.e | (fe) x d x ^c | %86
 d2 d x d- | dde x d | c2 BA B | (AG/ F>E) x/ |!ped! D4- x |!<(! D z x!<)! z2 |!>(! z5!>)! | %93
 z2 x A A | x2 z2 e |!pp! fe x d x ^c2 | d2 dd- x | dded | c.=Bcd | (c_B/ A x3/2 | F2 z z A2 | %101
 AAA x A | A^G x A B2 | .A=G/ F x3/2 | (D4 x2 |!<(! D2) z!<)! z2 x | x5 | A2 A!<(!A x | %108
 d-d- x d2-!<)! d | .^f2 x d2 x | =BB x B B2 | M=B2 ^cd) | ^c=BAB x | (M=B2 x A2) |!p! ^F2 z .d | %115
 d x (de) ^f x4 | e2 x d2 | d2 ^f2 |!>(! e2 dd!>)! | e2 dd e | d2 (^c ^B2) A | (^c2 A2) x | %122
 ^F z A2 | AAAA | A ^G2 (A _B) x | (A=G/ =F x/ | D4 x | D2 z d2 x | ^c2 x _B | A[K:bass]D, C, B,2 | %130
 A4 | A z x!pp! d2 | ^c2 x _B2 | A c2 | (A4) | A) (3:2:2z!p! (f2 x | _e2 x B | G2) _e2 x | %138
 .d2 x A x | F2 A2 | (A>^GA x B | A=G/) F x/ | D4- x | D z z2 | z4 | x4 | x4 | x4 | x4 | x4 | x4 | %151
 x5 | x4 | x4 | x4 | x4 |] %156
V:2
 x4 | x4 | x4 | x4 | x4 | x4 | x9/2 | x8 | x4 | x4 | x4 | x3 | x5 | x5 | x6 | x5 | x5 | x7 | x5 | %19
 x4 | x5 | x5 | x4 | x4 | x4[K:bass] x | x4 | x6 | x3 F8 | x4 | x6 | x5 | x3[K:bass] x3 | x4 || %33
 x6 | x6 | x7 | x6 | x12 | x7 || x5 | x6 | x6 | x6 | x5 | x5 | x4 | x5 | x5 | x4 | x6 | x4 | x4 | %52
 x7 | x3 ||[K:C][K:bass] x5 | x5 | x5 | x5 | x A,2 x2 ||[K:F][K:treble] x5 | x5 | x5 | x5 | x5 | %64
 x4 | x5 | x4 | x4 | x4 | x8 | x4 | x4 | x5 | x4 | x4 | x4 | x4 | x4 | x4 | x4 | x4 | x4 | x5 | %83
 x6 | x4 | x6 | x5 | x5 | x5 | x4 | x5 | x5 | x5 | x5 | x5 | x7 | x5 | x4 | x4 | x4 | x6 | x5 | %102
 x6 | x4 | x6 | x6 | x5 | x5 | x6 | x6 | x6 | x4 | x5 | x5 | x4 | x9 | x5 | x4 | x4 | x5 | x6 | %121
 x5 | x4 | x4 | x6 | x3 | x5 | x6 | x4 | x[K:bass] x4 | x4 | x5 | x5 | x3 | x4 | x4 | x4 | x5 | %138
 x5 | x4 | x5 | x3 | x5 | x4 | x4 | x4 | x4 | x4 | x4 | x4 | x4 | x5 | x4 | x4 | x4 | x4 |] %156
V:3
 z4 | z4 | x4 | e2 g>f | e2 d2 | z!<(! (dc!<)!d | _ecA3/2G | F2) x4!>(! (=EF/ x/ | G2!>)! _E2 | %9
 D4-) | D4 |!<(! D[A,DF]!<)![A,DF] | z [A,DF] z [A,DF]2 | z [A,DF] z [A,DF]2 | %14
 z [B,DG] x2 [B,DG] x | z [A,DF] z [A,DF] x | x [B,DF]2 z [A,DF] | z [B,DF]2 z x [B,F]2 | z A4 | %19
 z [G,B,DF] z [B,DF] | z [B,DF] x z ([B,DF] | z!>(! [A,DF]2 z [A,DF]) | z [A,DF] z [A,DF] | %23
 z [A,DF] z [A,DF] | z [G,B,DG] x z [B,DG] | z [A,DF] z .[A,DF] | z [A,DF] x z [A,DF] x | %27
 z [G,B,F] x3 z [G,B,F] x4 | z [G,B,B,E] z [B,B,E] | z [A,CF]2 z [G,B,DF]2 | %30
 x2 [G,B,G] x [G,B,DG] | z [G,B,DF]2 z [G,DF]2 | z [G,B,G] z [G,B,G] || %33
[K:C][K:alto] x2 [B,,E,^G,]2 [B,,E,G,]2 | z [B,,E,^G,] x3 .[B,,E,G,] | %35
 x2 [B,,E,^G,]2 z [A,,C,E,G,]2 | x [A,,C,E,^G,]2 z [A,,C,E,G,] x | %37
 z [A,,C,E,^G,]2 [A,,C,E,G,]2 x7 | z [B,,E,^G,]2 z [B,,E,G,]2 x ||[K:F][K:treble] z x z [B,DG]2 | %40
 z [=B,DG] x z x [B,DG] | z [G,^B,G] x z [G,B,DG] x | z [G,^B,G] x z [G,B,DG] x | %43
 z [G,B,D^F] z [A,DF] x | z!>)! [=CD^F] x z [CDF] | z [B,DG] z [B,DG] | %46
 z!>)!!>(! [CD^F] x z [CDF] | z [=B,DG]2 z [B,DG] | z [=B,FA] z [B,F] | z [A,D^F] x z [A,DF] x | %50
 z [A,^CG] z [G,B,G] | z [A,D^F] z [A,DF] | z A4 z [B,G] | z [A,D=F]2 || z [G,^B,G] x z x | %55
 z [A,DF]2 z [A,DF] | z (3:2:4[A,DF] x85/64 z [A,DF] x2/3 z29/64 | z [A,G] z .[B,CG] x | %58
 z [B,^CG] x3 || z!>(! [A,DF] x z!>)! [A,DF] | z [A,DF] z [A,DF] x | z [B,^CG] z [B,CG]2 | %62
 z [B,^CG] z [B,CG] x | z [A,DF] z [A,DF]2 | z [A,DF] z .[A,DF] | z .[A,_EG] z .[B,EG] x | %66
 z [B,_EG] z [A,EG] | z [A,DF] z [A,DF] | z [A,DF] z [A,DF] | z [A,^CG] z [A,CG] x4 | %70
 z [A,^CG] z [A,CG] | z ([A,-DF-] [A,-DF-]2) |!<(! [A,DF]2 x!<)! z2 | x4 | e2 .g>f | e2 d2 | %76
 z (d!<(!cd | _ecA>G!<)! | F2)!>(! (=EF/ x/ | G2)!>)! _E2 | D4- | D4- | D [A,DF]2 z [A,DF] | %83
 z [A,DF] x z [A,DF]2 | z [A,DF] z [A,DF] | z [B,DG] x z [B,DG]2 | z [A,DF]2 z [A,DF] | %87
 z [A,DF]2 z [A,DF] | z [B,EG] x z [B,EG] | z [A,^CG] z [A,CG] | z [A,DF] z [A,DF] x | %91
 z [A,DF]2 z [A,DF] | z [A,DF]2 z [A,DF] | z [A,DF]2 z [A,DF] | z [A,DF] z [A,DF]2 | %95
 z [B,DG] x z [B,DG] x2 | z [A,DF] z [A,DF] x | z [A,DF] z x | z [A,CF] z ([A,CF] | %99
 x [B,B,E]) z x | z [A,CF] x z [A,CF] x | z [A,^CG]2 z x | z [A,DF] x z [A,DF] x | %103
 z [A,^CG] x/ [A,CG] x/ | x2 [A,D^F] x [A,DF]2 | z [A,D^F] x z [A,DF]2 | %106
!>(! z [A,D^F] z!>)! [A,DF] x | z [G,D^F] x [A,DF]2 | z [A,D^F] x z [A,DF] x | %109
 z [A,D^F] x z [A,DF] x | z [=B,DG] x z [B,DG] x | z [=B,DG] z [B,DG] | z [A,^CG] z [A,CG]2 | %113
 z [A,^CG] x z [A,CG] | z [A,D^F] z [A,DF] | z D8 | z [=B,DG] x z [B,DG] | z [B,^F] z [B,F] | %118
 z [=B,DG] z [B,DG] | z [B,EG] x z [A,EG] | x2 [A,D^F] z [A,DF]2 | z [A,^CG] z [A,CG]2 | %122
 z [A,D^F] z [A,DF] | z [A,^CG] z [A,CG] | z [A,D=F]2 z [A,DF]2 | z [A,^CG] z | %126
 z [A,DF] z [A,DF]2 | z [A,DF]2 z .[A,DF]2 | z [_A,G] z [A,B,G] | z [B,CG] z [A,G]2 | %130
 z!>)!!>(! [A,DF] z [A,DF] | z [A,DF]2 z [A,DF] | z [B,^CG] z [A,G] x | z [^B,CG] x | %134
 z [A,DF] z [A,DF] | z [A,DF] z [A,DF] | z .[A,_EG] z .[B,EG] | z [A,_EG]2 z [B,F] | %138
 z [A,DF] z [A,DF] x | z [A,DF] z [A,DF] | z!>(! [A,^CG] z [A,CG] x | z!>)! [A,^CG] z | %142
 z ([A,-DF-]2 [A,DF]2-) | [A,DF]2 z2 | x4 | e2 gf/ x/ | e2 d2 | z!<(! dcd | _ecAG!<)! | %149
 F2 =EF/ x/ |!>(! G2!>)! _E2 | D4 x | M[D-F]4 | [D-FF]4 | [DF]4 | [D=F]2 z2 |] %156
V:4
 z2!pp! D,,2 | D,,2 (D,,[A,,F,]) | (D,,[A,,F,]) (D,,[A,,F,]) | (D,,[A,,F,]) D,,2 | %4
 (D,,[A,,F,]) (D,,.[A,,F,]) | (D,,[A,,F,]) (D,,[A,,F,]) | x9/2 | %7
[K:alto] x2 (A2 [F,D]2) ([G,,B,,][F,D]) | ([G,,B,,][F,D]) B,,2 | (B,,[F,D]) (B,,[F,D]) | %10
 ([G,,B,,][F,D]) B,,2 | D,, x z | x z [D,,A,,] z x | [B,,,D,,A,,] z [D,,A,,]2 z | %14
 [G,,D,] z [G,,D,]2 x2 | [D,,A,,] z [D,,A,,]2 x | [D,,A,,]2 z [D,,A,,] z | %17
 [G,,D,] z x [G,,D,]2 z x | [A,,E,] z [A,,E,] x2 | [D,,A,,] z [D,,A,,] z | %20
 [D,,A,,] z x [D,,A,,] z | [D,,A,,]2 z [D,,A,,-] x | [D,,A,,] z [B,,,D,,A,,] z | %23
 [D,,A,,] z!p! [D,,A,,] z | [G,,D,]2 z [G,,D,] z | x z [B,,,D,,A,,] z | %26
 [B,,,D,,A,,] z x [D,,A,,] z x | [F,,C,]2 z x2 [F,,C,] z x4 | [C,G,] z [C,G,] x | %29
 [F,,C,] z [F,,C,] x3 | x3 [A,,E,]2 | [D,,A,,] x5 | [A,,E,] z [A,,E,]2 ||[K:C] [D,,A,,]2 z z x2 | %34
 [D,,A,,] z x [D,,A,,]2 z | [D,,A,,]2 z [D,,A,,] x z x | [B,,,D,,A,,]2 z x z x | %37
 [D,,A,,] z x z x8 | [D,,A,,]2 z[K:treble] x z x2 ||[K:F][K:bass] [F,,A,,D,] z [G,,E,]2 z | %40
 [G,,D,]2 z [G,,D,]2 z | [A,,E,]2 z [A,,E,] z x | [A,,E,]2 z [A,,E,]2 z | x z [D,,A,,]2 z | %44
 [D,A,]2 z [D,A,] z | .[G,,D,] z [G,,D,] z | [D,A,]2 z x z | [G,,D,] z [G,,D,] x z | %48
 [G,,D,] z [G,,D,] z | [D,,A,,] z x [D,,A,,]2 x | [A,,E,] x [A,,E,] z | [D,,A,,] z D,,/ z x/ | %52
 [A,,E,] x [A,,E,]2 x3 | [D,,A,,]2 x || [A,,E,] z x [A,,E,] z |!pp! [B,,,D,,A,,] z x2 z | %56
 [D,,A,,] z x [D,,A,,] z | [A,,E,] z [A,,E,] z x | [A,,E,] z x3 || [D,,A,,]2 z [D,,A,,] z | %60
 [D,,A,,] z!pp! [D,,A,,]2 z | [A,,E,] z [A,,E,] z x | [A,,E,] z [A,,E,]2 x | %63
 [D,,A,,] z [D,,A,,] z x | (3[D,,A,,] z [D,,A,,] x z | [G,,D,] z [G,,D,]2 z | [G,,D,] z [G,,D,] z | %67
 [D,,A,,] z [C,,A,,] z | [D,,A,,] z [C,,A,,] z | [A,,E,] z [A,,E,] z x4 | [A,,E,] z [A,,E,] z | %71
 (C,,[A,,F,]) (D,,[A,,F,]) | (.C,,[A,,F,]) x (D,, [A,,F,]) | (D,,.[A,,F,]) (D,,[A,,F,]) | %74
 (D,,[A,,F,]) (C,,[A,,F,]) | (D,,[A,,F,]) (C,,[A,,F,]) | D,,2 (D,,[A,,F,]) | %77
 (C,,[A,,F,]) (.C,,[A,,F,]) | (D,,[A,,F,]) (.D,,[A,,F,]) | (D,,[A,,F,]) (D,,[A,,F,]) | %80
 (D,,[A,,F,]) (D,,[A,,F,]) | (D,,[A,,F,]) (D,,[A,,F,]) | D,, z [C,,A,,] x z | %83
 [C,,A,,]2 z [D,,A,,] z x | [D,,A,,] z [D,,A,,] z | [G,,D,]2 z [G,,D,] z x | %86
 [C,,A,,] z [D,,A,,] x z | [D,,A,,] z [C,,A,,] x z | [G,,D,] z x [G,,D,] z | [A,,E,] z [A,,E,] z | %90
 [D,,A,,] z [D,,A,,]2 z | [D,,A,,]2 z [C,,A,,] z | [C,,A,,]2 z [C,,A,,] z | %93
 [D,,A,,]2 z [C,,A,,] x | [D,,A,,] z [B,,,D,,A,,]2 z | [G,,D,]2 z [G,,D,] z x2 | %96
 [D,,A,,] z [C,,A,,]2 z | [D,,A,,] z [D,,A,,] z | [F,,C,] z [F,,C,] z | [C,G,] z [C,G,]2 | %100
 [F,,C,] z x [F,,C,] z x | [A,,E,] z [A,,E,] x z | [D,,A,,]2 z [D,,A,,]2 z | [A,,E,] z [A,,E,]2 | %104
 [D,,A,,]2 z [D,,A,,]2 z | [C,,A,,] z x [C,,A,,] z x | [D,,A,,] z [D,,A,,]2 z | x z [C,,A,,] z x | %108
 [D,,A,,]2 z [D,,A,,] z x | [D,,A,,]2 z [D,,A,,]2 z | [G,,D,]2 z [G,,D,]2 z | [G,,D,] z [G,,D,] z | %112
 [A,,E,] z [A,,E,] z x | [A,,E,]2 z [A,,E,] z | [D,,A,,] z [D,,A,,] z | [D,A,] x z [D,A,] z x4 | %116
 [G,,D,]2 z [G,,D,] z | [D,A,] z [D,A,] z | [G,,D,] z [G,,D,] z | [G,,D,] z x [G,,D,] z | %120
 [D,,A,,]2 z [C,,A,,] z x | [A,,E,] z [A,,E,] z x | x z [D,,A,,] z | [A,,E,] z [A,,E,] z | %124
 [D,,A,,] z [D,,A,,] x z x | [A,,E,] z [A,,E,] | [D,,A,,] z x z x | [C,,A,,] z x D,,/ z x3/2 | %128
 .[A,,E,] z [A,,E,] z | ([A,,E,] z [A,,E,] z x | [C,,A,,] z [C,,A,,]) z | %131
 [D,,A,,]2 z!pp! [C,,A,,] z | [A,,E,] z [A,,E,] z x | [A,,E,] z x | [C,,A,,] z [C,,A,,] z | %135
 (3[C,,A,,] z .[D,,A,,] x z | [G,,D,] z [G,,D,] z | [G,,D,] z [G,,D,] x z | %138
 [C,,A,,] z [D,,A,,]2 z | [D,,A,,] z [C,,A,,] z | [A,,E,] z [A,,E,] z x | [A,,E,] z [A,,E,] | %142
 (D,,[A,,F,]) (D,,[A,,F,]) x | (D,,[A,,F,]) (C,,.[A,,F,]) |!p! (D,,[A,,F,]) (D,,[A,,F,]) | %145
 (D,,[A,,F,]) (D,,[A,,F,]) | (C,,[A,,F,]) (.D,,!p![A,,F,]) | (.C,,[A,,F,]) (C,,[A,,F,]) | %148
 (D,,[A,,F,]) (D,,[A,,F,]) | (C,,[A,,F,]) (D,,[A,,F,]) | (D,,[A,,F,]) (C,,[A,,F,]) | %151
 (D,,[A,,F,]) (D,,[A,,F,]) x | (D,,[A,,F,]) (D,,[A,,F,]) | D,, z [A,,F,] z | C,, z [A,,F,] z | %155
 D,,2 z2 |] %156
V:5
 x4 | x4 | x4 | x4 | x4 | x4 | x9/2 | x8 | x4 | x4 | x4 | x3 | x5 | x5 | x6 | x5 | x5 | x7 | x5 | %19
 x4 | x5 | x5 | x4 | x4 | x5 | x4 | x6 | x11 | x4 | x6 | x5 | x6 | x4 ||[K:C][K:alto] x6 | x6 | %35
 x7 | x6 | x12 | x7 ||[K:F][K:treble] x5 | x6 | x6 | x6 | x5 | x5 | x4 | x5 | x5 | x4 | x6 | x4 | %51
 x4 | x7 | x3 || x5 | x5 | x5 | x5 | x5 || x5 | x5 | x5 | x5 | x5 | x4 | x5 | x4 | x4 | x4 | x8 | %70
 x4 | x4 | x5 | x4 | x4 | x4 | x4 | x4 | x4 | x4 | x4 | x4 | x5 | x6 | x4 | x6 | x5 | x5 | x5 | %89
 x4 | x5 | x5 | x5 | x5 | x5 | x7 | x5 | x4 | x4 | x4 | x6 | x5 | x6 | x4 | x6 | x6 | x5 | x5 | %108
 x6 | x6 | x6 | x4 | x5 | x5 | x4 | x z [B,F] z [CDF] x4 | x5 | x4 | x4 | x5 | x6 | x5 | x4 | x4 | %124
 x6 | x3 | x5 | x6 | x4 | x5 | x4 | x5 | x5 | x3 | x4 | x4 | x4 | x5 | x5 | x4 | x5 | x3 | x5 | %143
 x4 | x4 | x4 | x4 | x4 | x4 | x4 | x4 | z F2 F2 | x4 | [A,D]4 | [A,-D]4 | [A,D]2 x2 |] %156
V:6
 x4 | x4 | x4 | x4 | x4 | x4 | x9/2 | x8 | x4 | x4 | x4 | x3 | x5 | x5 | x6 | x5 | x5 | x7 | x5 | %19
 x4 | x5 | x5 | x4 | x4 | x5 | x4 | x6 | x11 | x4 | x6 | x5 | x6 | x4 ||[K:C][K:alto] x6 | x6 | %35
 x7 | x6 | x12 | x7 ||[K:F][K:treble] x5 | x6 | x6 | x6 | x5 | x5 | x4 | x5 | x5 | x4 | x6 | x4 | %51
 x4 | x7 | x3 || x5 | x5 | x5 | x5 | x5 || x5 | x5 | x5 | x5 | x5 | x4 | x5 | x4 | x4 | x4 | x8 | %70
 x4 | x4 | x5 | x4 | x4 | x4 | x4 | x4 | x4 | x4 | x4 | x4 | x5 | x6 | x4 | x6 | x5 | x5 | x5 | %89
 x4 | x5 | x5 | x5 | x5 | x5 | x7 | x5 | x4 | x4 | x4 | x6 | x5 | x6 | x4 | x6 | x6 | x5 | x5 | %108
 x6 | x6 | x6 | x4 | x5 | x5 | x4 | x9 | x5 | x4 | x4 | x5 | x6 | x5 | x4 | x4 | x6 | x3 | x5 | %127
 x6 | x4 | x5 | x4 | x5 | x5 | x3 | x4 | x4 | x4 | x5 | x5 | x4 | x5 | x3 | x5 | x4 | x4 | x4 | %146
 x4 | x4 | x4 | x4 | x4 | x3 A,2 | x4 | x4 | x4 | x4 |] %156

